frontend/public/github.svg

<svg width="50" height="50" viewBox="0 0 50 50" fill="none" xmlns="http://www.w3.org/2000/svg">
<path fill-rule="evenodd" clip-rule="evenodd" d="M25 0C11.1875 0 0 11.4705 0 25.6323C0 36.9747 7.15625 46.5547 17.0938 49.951C18.3438 50.1753 18.8125 49.4063 18.8125 48.7335C18.8125 48.1247 18.7813 46.1062 18.7813 43.9595C12.5 45.145 10.875 42.3895 10.375 40.9477C10.0938 40.2107 8.875 37.9359 7.8125 37.3271C6.9375 36.8465 5.6875 35.661 7.78125 35.629C9.75 35.5969 11.1562 37.4873 11.625 38.2563C13.875 42.1332 17.4688 41.0438 18.9062 40.3709C19.125 38.7048 19.7812 37.5834 20.5 36.9426C14.9375 36.3018 9.125 34.091 9.125 24.2866C9.125 21.4991 10.0937 19.1922 11.6875 17.398C11.4375 16.7571 10.5625 14.1298 11.9375 10.6054C11.9375 10.6054 14.0313 9.93253 18.8125 13.2327C20.8125 12.656 22.9375 12.3676 25.0625 12.3676C27.1875 12.3676 29.3125 12.656 31.3125 13.2327C36.0938 9.90049 38.1875 10.6054 38.1875 10.6054C39.5625 14.1298 38.6875 16.7571 38.4375 17.398C40.0312 19.1922 41 21.4671 41 24.2866C41 34.1231 35.1562 36.3018 29.5938 36.9426C30.5 37.7436 31.2812 39.2816 31.2812 41.6846C31.2812 45.1129 31.25 47.8684 31.25 48.7335C31.25 49.4063 31.7188 50.2074 32.9688 49.951C42.8438 46.5547 50 36.9426 50 25.6323C50 11.4705 38.8125 0 25 0Z" fill="#00FFEE"/>
</svg>

<svg width="50" height="50" fill="none" xmlns="http://www.w3.org/2000/svg"><path fill-rule="evenodd" clip-rule="evenodd" d="M25 0C11.187 0 0 11.47 0 25.632c0 11.343 7.156 20.923 17.094 24.319 1.25.224 1.718-.545 1.718-1.218 0-.608-.03-2.627-.03-4.773-6.282 1.185-7.907-1.57-8.407-3.012-.281-.737-1.5-3.012-2.563-3.62-.875-.482-2.125-1.667-.03-1.699 1.968-.032 3.374 1.858 3.843 2.627 2.25 3.877 5.844 2.788 7.281 2.115.219-1.666.875-2.788 1.594-3.428-5.563-.641-11.375-2.852-11.375-12.656 0-2.788.969-5.095 2.563-6.889-.25-.64-1.126-3.268.25-6.793 0 0 2.093-.672 6.874 2.628 2-.577 4.125-.865 6.25-.865s4.25.288 6.25.865c4.782-3.333 6.875-2.628 6.875-2.628 1.376 3.525.5 6.152.25 6.793C40.032 19.192 41 21.468 41 24.287c0 9.836-5.844 12.015-11.406 12.656.906.8 1.687 2.339 1.687 4.742 0 3.428-.031 6.183-.031 7.048 0 .673.469 1.474 1.719 1.218C42.844 46.555 50 36.943 50 25.632 50 11.47 38.812 0 25 0Z" fill="#0FE"/></svg>
